Papirus/22x22/panel/uget-tray-downloading.svg

<?xml version="1.0" encoding="UTF-8" standalone="no"?>
<svg xmlns:dc="http://purl.org/dc/elements/1.1/" xmlns:cc="http://creativecommons.org/ns#" xmlns:rdf="http://www.w3.org/1999/02/22-rdf-syntax-ns#" xmlns:svg="http://www.w3.org/2000/svg" xmlns="http://www.w3.org/2000/svg" version="1.0" width="22" height="22" id="svg2817">
    <metadata id="metadata57">
        <rdf:RDF>
            <cc:Work rdf:about="">
                <dc:format>
                    image/svg+xml
                </dc:format>
                <dc:type rdf:resource="http://purl.org/dc/dcmitype/StillImage"/>
                <dc:title/>
            </cc:Work>
        </rdf:RDF>
    </metadata>
    <path id="rect4203" d="M 7 3 C 6 3 6 3.9238281 6 3.9238281 L 6 12 L 3 12 L 11 19 L 19 12 L 16 12 L 16 3.9238281 C 16 4.0007511 16 3 15 3 L 7 3 z M 9.5 8 L 12.5 8 C 13.000001 8 13 8.4993935 13 8.4609375 L 13 12 L 15 12 L 11 16 L 7 12 L 9 12 L 9 8.4609375 C 9 8.4609375 9.0000005 8 9.5 8 z " style="fill:#ffffff;fill-opacity:1"/>
</svg>

<?xml version="1.0" encoding="UTF-8" standalone="no"?>
<svg id="svg2817" xmlns:rdf="http://www.w3.org/1999/02/22-rdf-syntax-ns#" xmlns="http://www.w3.org/2000/svg" height="22" width="22" version="1.0" xmlns:cc="http://creativecommons.org/ns#" xmlns:dc="http://purl.org/dc/elements/1.1/">
 <metadata id="metadata57">
  <rdf:RDF>
   <cc:Work rdf:about="">
    <dc:format>image/svg+xml</dc:format>
    <dc:type rdf:resource="http://purl.org/dc/dcmitype/StillImage"/>
    <dc:title/>
   </cc:Work>
  </rdf:RDF>
 </metadata>
 <path id="rect4203" fill="#fff" d="m7 3c-1 0-1 0.9238-1 0.9238v8.0762h-3l8 7 8-7h-3v-8.0762c0 0.077 0-0.9238-1-0.9238h-8zm2.5 5h3c0.5 0 0.5 0.4994 0.5 0.4609v3.5391h2l-4 4-4-4h2v-3.5391s0-0.4609 0.5-0.4609z"/>
</svg>
